packages/icons/raw/imported/SportRugby.svg

<svg width="32" height="32" viewBox="0 0 32 32" fill="none" xmlns="http://www.w3.org/2000/svg">
<path d="M6.84282 18.4724C8.53451 21.1844 10.8131 23.4645 13.5233 25.1574M11.8452 16.2138C10.6081 18.1579 10.2922 20.0588 11.2119 20.966C12.1388 21.8804 14.058 21.5259 16.0006 20.2378M18.4592 6.84698C21.1694 8.53983 23.448 10.82 25.1397 13.532M16.5048 11.8292C18.3255 10.7239 20.0744 10.4619 20.946 11.3216C21.796 12.1601 21.5905 13.8474 20.5778 15.6332M13.523 18.4691L18.1988 13.8824M8.06803 25.261C9.67341 25.5892 12.9877 25.8829 16.889 23.9482C19.9444 22.4281 22.4302 19.9406 23.9492 16.8831C25.8826 12.9965 25.5891 9.6799 25.2612 8.05615C25.1231 7.38247 24.6052 6.86425 23.932 6.72606C22.3093 6.41513 18.995 6.12147 15.111 8.05615C12.0556 9.57626 9.56984 12.0637 8.05076 15.1212C6.1174 19.0078 6.41086 22.3244 6.73884 23.9482C6.87694 24.6046 7.3948 25.1228 8.06803 25.261Z" stroke="black" stroke-miterlimit="10" stroke-linecap="round" stroke-linejoin="round"/>
</svg>

<svg width="32" height="32" fill="none" xmlns="http://www.w3.org/2000/svg"><path d="M6.843 18.472a20.934 20.934 0 0 0 6.68 6.685m-1.678-8.943c-1.237 1.944-1.553 3.845-.633 4.752.927.914 2.846.56 4.789-.728m2.458-13.391a20.934 20.934 0 0 1 6.68 6.685m-8.634-1.703c1.82-1.105 3.57-1.367 4.441-.507.85.838.644 2.525-.368 4.311m-7.055 2.836 4.676-4.587M8.068 25.261c1.605.328 4.92.622 8.821-1.313a15.707 15.707 0 0 0 7.06-7.065c1.934-3.886 1.64-7.203 1.312-8.827a1.699 1.699 0 0 0-1.329-1.33c-1.623-.31-4.937-.605-8.821 1.33a15.708 15.708 0 0 0-7.06 7.065c-1.934 3.887-1.64 7.203-1.312 8.827a1.702 1.702 0 0 0 1.329 1.313Z" stroke="#000" stroke-miterlimit="10" stroke-linecap="round" stroke-linejoin="round"/></svg>
